icons/lightbulb-flash-fill.svg

<svg xmlns="http://www.w3.org/2000/svg" width="24" height="24" fill="none"><g clip-path="url(#a)"><g><path fill="#121212" d="M7.94096 18C7.64396 16.727 6.30396 15.686 5.75396 15C4.81215 13.8233 4.22191 12.4045 4.05122 10.907C3.88054 9.40947 4.13636 7.89421 4.78921 6.53575C5.44207 5.17728 6.46539 4.03087 7.74132 3.22858C9.01724 2.4263 10.4938 2.00076 12.001 2.001C13.5082 2.00124 14.9847 2.42725 16.2604 3.22995C17.536 4.03265 18.559 5.17938 19.2114 6.53805C19.8638 7.89673 20.1192 9.41207 19.948 10.9095C19.7768 12.407 19.1861 13.8256 18.244 15.002C17.694 15.687 16.356 16.728 16.059 18H7.93996H7.94096ZM16 20V21C16 21.5304 15.7892 22.0391 15.4142 22.4142C15.0391 22.7893 14.5304 23 14 23H9.99996C9.46953 23 8.96082 22.7893 8.58575 22.4142C8.21067 22.0391 7.99996 21.5304 7.99996 21V20H16ZM13 10.005V6L8.49996 12.005H11V16.005L15.5 10.005H13Z"/></g></g><defs><clipPath id="a"><rect width="24" height="24" fill="white"/></clipPath></defs></svg>

<svg width="24" height="24" fill="none" xmlns="http://www.w3.org/2000/svg"><g clip-path="url(#a)"><path d="M7.941 18c-.297-1.273-1.637-2.314-2.187-3a8 8 0 1 1 12.49.002c-.55.685-1.888 1.726-2.185 2.998H7.94h.001ZM16 20v1a2 2 0 0 1-2 2h-4a2 2 0 0 1-2-2v-1h8Zm-3-9.995V6l-4.5 6.005H11v4l4.5-6H13Z" /></g><defs><clipPath id="a"><path fill="#fff" d="M0 0h24v24H0z"/></clipPath></defs></svg>
